**kern	**kern	**kern	**kern
*part4	*part3	*part2	*part1
*staff4	*staff3	*staff2	*staff1
*I"Cello	*I"Viola	*I"2nd Violin	*I"1st Violin
*clefF4	*clefC3	*clefG2	*clefG2
*k[b-]	*k[b-]	*k[b-]	*k[b-]
*F:	*F:	*F:	*F:
*M2/4	*M2/4	*M2/4	*M2/4
!	!	!	!LO:TX:a:B:t=Presto
8r	8r	8r	(8aa
=1	=1	=1	=1
2r	8f'	8a'	8ff'L)
.	8r	8r	8cc'J
.	8f'	8b-'	8dd'L
.	8r	8r	8ee'J
=2	=2	=2	=2
2r	4f	4a	8ff'L
.	.	.	8gg'J
.	8r	8r	8aa'L
.	(8f	(8a	8ff'J
=3	=3	=3	=3
2r	8e')	8g')	8ccc'L
.	8c'L	8e'L	8ccc'J
.	8d'	8f'	8ccc'L
.	8e'J	8g'J	8ccc'J
=4	=4	=4	=4
2r	4f	4a	(16aaLL
.	.	.	16bb-
.	.	.	16aa
.	.	.	16ggJJ)
.	4r	4r	8ff'L
.	.	.	(8aaJ
=5	=5	=5	=5
2r	8f'	8a'	8ff'L)
.	8r	8r	8cc'J
.	8f'	8b-'	8dd'L
.	8r	8r	8ee'J
=6	=6	=6	=6
2r	4f	4a	8ff'L
.	.	.	8gg'J
.	8r	8r	8aa'L
.	(8f	(8a 8cc	8ff'J
=7	=7	=7	=7
2r	8e')	8g') 8cc	8gg'L
.	8r	8r	8ccc'J
.	8G'	8f' 8dd	(16bbnLL
.	.	.	16ccc
.	.	8r	16ddd
.	.	.	16bbJJ)
=8	=8	=8	=8
.	8c'L	.	.
4.r	8c'J	8e'L 8cc	8ccc'L
.	8c'	8e'J 8cc	8ccc'J
=:|!|:	=:|!|:	=:|!|:	=:|!|:
!!linebreak:original
.	(8D^	.	.
!!linebreak:original
(8G-X^	.	(8a^	(8cc^
=9	=9	=9	=9
.	8d'L)	.	.
8G'L)	8A'J	8g'L)	8b-L)
8c'J	8B-'L	8d'J	8f#X'J
8B-'L	8A-X'J	8d'L	8g'L
8A'J	.	8d'J	8a'J
=10	=10	=10	=10
.	8A'L	.	.
8G'L	8A'J	8d'L	8b-'L
8G'J	8A'L	8d'J	8b-'J
8G'L	(8C^J	8d'L	8b-'L
(8E^J	.	(8g^J	(8b-^J
=11	=11	=11	=11
.	8c'L)	.	.
8F'L)	8G'J	8f'L)	8aL)
8B-'J	8A'L	8c'J	8e'J
8A'L	8E'J	8c'L	8f'L
8G'J	.	8c'J	8g'J
=12	=12	=12	=12
.	8F'L	.	.
8F'L	8F'J	8c'L	8a'L
8F'J	8F'L	8c'J	8a'J
8F'L	(8fJ	8c'L	8a'L
(8FJ	.	(8fJ	(8fJ
=13	=13	=13	=13
.	8A'L)	.	.
8AA'L)	(8fJ	8A'L)	8A'L)
(8FJ	8B-'L)	(8fJ	(8fJ
8BB-'L)	(8fJ	8B-'L)	8B-'L)
(8FJ	.	(8fJ	(8fJ
=14	=14	=14	=14
.	8c'L)	.	.
8C'L)	(8fJ	8c'L)	8c'L)
(8FJ	8d')	(8fJ	(8fJ
8D')	8r	8d'L)	8d'L)
8r	.	8f'J	8ff'J
=15	=15	=15	=15
.	2r	.	.
2r	.	8A'L	8a'L
.	.	8f'J	8ff'J
.	.	8B-'L	8b-'L
.	.	8f'J	8ff'J
=16	=16	=16	=16
.	2r	.	.
2r	.	8c'L	8cc'L
.	.	8f'J	8ff'J
.	.	8d'L	8dd'L
.	.	8f'J	(8ffJ
=17	=17	=17	=17
!!linebreak:original
.	(2d	.	.
!!linebreak:original
2G	.	4.f	8bnL)
.	.	.	(8aaJ
.	.	.	8ggL)
.	.	(8bn	(8ffJ
=18	=18	=18	=18
.	4e)	.	.
4c	.	4cc)	8eeL)
.	4r	.	(8ddJ
4r	.	8r	8ccL)
.	.	(8e	(8ggJ
=19	=19	=19	=19
.	(2d	.	.
(2G	.	4.f)	8bnL)
.	.	.	(8aaJ
.	.	.	8ggL)
.	.	(8bn	(8ffJ
=20	=20	=20	=20
.	8e')	.	.
4c')	(8eL	8cc')	4ee')
.	8c'J)	(8gL	.
8r	8r	8e'J)	8r
(8E	.	8r	(8cc
=21	=21	=21	=21
.	8r	.	.
4c')	(8eL	8r	4ee')
.	8c'J)	(8gL	.
8r	8r	8e'J)	8r
(8c	.	8r	(8ee
=22	=22	=22	=22
.	8r	.	.
*clefC4	*	*	*
4e')	(8eL	8r	4gg')
.	8c'J)	(8gL	.
8r	.	8e'J)	8r
(8e	.	.	(8gg
=23	=23	=23	=23
.	8r	.	.
.	(8eL	8r	.
4g)	8cJ)	(8gL	4bb-)
.	8r	8eJ)	.
8r	.	8r	8r
(8g	.	.	(8bb-
=24	=24	=24	=24
.	8r	.	.
.	(8eL	8r	.
4e')	8cJ)	(8gL	4gg')
.	8r	8eJ)	.
8r	.	8r	8r
(8g	.	.	(8bb-
=25	=25	=25	=25
.	2r	.	.
.	.	2r	.
4e)	.	.	8ggL)
.	.	.	(8ddd
4r	.	.	8bb-)
.	.	.	(8cccJ
=26	=26	=26	=26
.	2r	.	.
.	.	2r	.
2r	.	.	8aaL)
.	.	.	(8bb-
.	.	.	8gg)
.	.	.	(8aaJ
=27	=27	=27	=27
.	8f'	.	.
.	8r	8a'	.
2r	8f'	8r	8ffL)
.	8r	8b-'	8cc'
.	.	8r	8dd'
.	.	.	8ee'J
=28	=28	=28	=28
.	4f	.	.
.	.	4a	.
2r	8r	.	8ff'L
.	(8f	8r	8gg'
.	.	(8a	8aa'
.	.	.	8ff'J
=29	=29	=29	=29
.	8e')	.	.
.	8c'L	8g'L)	.
2r	8d'	8e'	8ccc'L
.	8e'J	8f'	8ccc'
.	.	8g'J	8ccc'
.	.	.	8ccc'J
=30	=30	=30	=30
.	4f	.	.
.	.	4a	.
*clefF4	*	*	*
4r	8r	.	(16aaLL
.	.	.	16bb-
.	(8cc	8r	16aa
.	.	.	16ggJJ)
8r	.	[8ff	8ff'L
(8e-X	.	.	8aa'J
=31	=31	=31	=31
.	8b-'L)	.	.
.	8a'J	8ff'L]	.
8d'L)	8b-'L	8ff'	8bb-'L
8c'J	8g'J	8ff'	8ccc'
8B-'L	.	8b-'J	8ddd'
8G'J	.	.	8eee'J
=32	=32	=32	=32
.	4f	.	.
.	.	8cc'L	.
8A'L	4r	8b-'	8fff'L
8G'J	.	8a'	8ggg'
8F'L	.	8cc'J	8aaa'
8A'J	.	.	8fff'J
=33	=33	=33	=33
.	8b-'	.	.
.	8r	8dd'	.
8B-'	8g'	8r	8ggg'L
8r	8r	8b-'	8bbb-'J
8c'	.	8r	(16eeeLL
.	.	.	16fff
8r	.	.	16ggg
.	.	.	16eeeJJ)
=34	=34	=34	=34
.	8a'L	.	.
.	8cc'J	8a'L	.
8F'L	8a'	8a'J	8fff'L
8F'J	.	8a'	8fff'J
8F'	.	.	8fff'
=:|!	=:|!	=:|!	=:|!
.	8r	.	.
.	.	8a'	.
8F	.	.	8ccc'
=35	=35	=35	=35
.	2r	.	.
.	.	8b-'L	.
8FFL	.	8b-'J	8ddd'L
8F	.	(16gLL	8ddd'J
.	.	16a	.
8F	.	16b-	(16bb-LL
.	.	16gJJ)	16ccc
8FJ	.	.	16ddd
.	.	.	16bb-JJ)
=36	=36	=36	=36
.	8r	.	.
.	8c'L	8a'L	.
8FFL	8f'	8a'	8cccL
8F	8a'J	8a'	8cccJ
8F	.	8ff'J	8cccL
8FJ	.	.	8aaJ
=37	=37	=37	=37
.	4.g	.	.
.	.	2b- 2ee	.
8FFL	.	.	8bb-L
8F	(8cc	.	8bb-J
8F	.	.	(16ggLL
.	.	.	16aa
8FJ	.	.	16bb-
.	.	.	16ggJJ)
=38	=38	=38	=38
.	8fL)	.	.
.	8c'	8a 8ff	.
4FF	8d'	4ff	8aa
.	8e'J	.	4aa
4r	.	[8ff	.
.	.	.	[8aa
=39	=39	=39	=39
.	8f'L	.	.
.	8g'	8ff]	.
4r	8a'J	4ff	8aa]
.	.	.	4aa
8r	.	[8ff	.
(8f	.	.	[8aa
=40	=40	=40	=40
.	2r	.	.
.	.	8ff]	.
8d'L)	.	4ff	8aa]
8A'	.	.	4aa
8Bn'	.	[8ff	.
8c#X'J	.	.	[8aa
=41	=41	=41	=41
.	4r	.	.
.	8r	8ff]	.
8d'L	(8dd	4ff	8aa]
8e'	.	.	4aa
8fJ	.	[8ff	.
.	.	.	8aa
=42	=42	=42	=42
.	8bn'L)	.	.
.	8g'J	.	.
2r	8a'L	8ff]	.
.	8b'J	4ff	8gg
.	.	.	4gg
.	.	8ff	.
.	.	.	[8gg
=43	=43	=43	=43
.	8cc'L	.	.
.	8dd'J	.	.
2r	8ee'L	8ee	.
.	(8ccJ	4ee	8gg]
.	.	.	4gg
.	.	[8ee	.
.	.	.	8gg
=44	=44	=44	=44
.	8a'L)	.	.
.	8f'J	.	.
2r	8g'L	8ee]	.
.	8a'J	4ee	8ff
.	.	.	4ff
.	.	8ee	.
.	.	.	[8ff
=45	=45	=45	=45
.	8bn'L	.	.
.	8cc'J	.	.
2r	8dd'L	8dd	.
.	(8bJ	4dd	8ff]
.	.	.	4ff
.	.	[8dd	.
.	.	.	(8ff
=46	=46	=46	=46
.	8g'L)	.	.
.	8e'J	.	.
2r	8a'L	4dd]	.
.	8g'J	.	8ee)
.	.	4cc	4ee
.	.	.	(8ee
=47	=47	=47	=47
.	8f'L	.	.
.	8f'J	.	.
4r	8f#X'L	8cc'L	.
.	8f#'J	8cc'	8dd)
8r	.	8cc'	4dd
(8A	.	8cc'J	.
.	.	.	8dd'
=48	=48	=48	=48
.	4g	.	.
8G')	4r	4bn	.
8F'L	.	.	4dd
8E'	.	4r	.
8D'J	.	.	8r
.	.	.	(8gg
=49	=49	=49	=49
.	4r	.	.
4C	8r	8r	.
.	(8g	(8gL	8ee'L)
4r	.	8e'J)	8bn'
.	.	8Bn'	8cc'
.	.	.	8dd'J
=50	=50	=50	=50
.	8e'L)	.	.
.	8d'	.	.
2r	8c'J	8c'L	.
.	8r	8d'	8ee'L
.	.	8e'	8ff'J
.	.	(8gJ	8gg'
=51	=51	=51	=51
.	4r	.	.
8r	8r	8e'L)	2r
(8GL	(8G	8Bn'	.
8E')	.	8c'	.
8BBn'J	.	8d'J	.
=52	=52	=52	=52
.	8E'L)	.	.
.	8D'	.	.
8C'L	8C'J	8e'L	4r
8D'	8r	8f'	.
8E'J	.	8g'J	8r
8r	.	.	(8gg
=53	=53	=53	=53
.	4r	.	.
.	.	8r	.
2r	8r	(8gL	8ee'L)
.	(8g	8e'J)	8bn'
.	.	8Bn'	8cc'
.	.	.	8dd'J
=54	=54	=54	=54
.	8e'L)	.	.
.	8d'	8c'L	.
2r	8c'J	8d'	8ee'L
.	.	8e'J	8ff'
.	.	.	8gg'
.	.	.	(8eeJ
=55	=55	=55	=55
.	4r	.	.
.	.	4r	.
.	8r	.	.
8r	[8e	8r	8ccL)
(8EL	.	(8e	8g#X'
8C')	.	.	8a'
8GG#X'J	.	.	8bn'J
=56	=56	=56	=56
.	8eL]	.	.
.	8G#X'	8c'L)	.
.	8A'J	8Bn'	.
8AA'L	.	8A'J	8cc'L
8BBn'J	.	.	8dd'
4C'	.	.	8ee'
.	.	.	(8ccJ
=57	=57	=57	=57
.	8r	.	.
.	(8GL	8r	.
.	8F'J)	(8B-L	.
.	.	8A'J)	.
8r	.	.	8a'L)
(8CL	.	.	(8e
8AA'J)	.	.	8f')
.	.	.	(8aJ
=58	=58	=58	=58
.	8r	.	.
.	(8EL	8r	.
.	8D'J)	(8GL	.
.	.	8A'J)	.
8r	.	.	.
(8AAL	.	.	8f'L)
8FF'J)	.	.	(8c#X
.	.	.	8d')
.	.	.	(8aaJ
=59	=59	=59	=59
.	8r	.	.
.	(8E	8r	.
.	8F'L)	(8gL	.
.	8d'J	8a')	.
8r	.	8a'J	.
(8EEL	.	.	.
8FF')	.	.	8ff'L)
8FF#X'J	.	.	(8cc#X
.	.	.	8dd')
.	.	.	(8ccnJ
=60	=60	=60	=60
.	[2d	.	.
.	.	8g	.
.	.	4bn	.
8GGL	.	[8b	.
8GJ	.	.	.
8GL	.	.	16bnLL)
.	.	.	16gg
8GJ	.	.	16ff#X
.	.	.	16ggJJ)
.	.	.	(16aaLL
.	.	.	16gg
.	.	.	16ff#
.	.	.	16ggJJ)
=61	=61	=61	=61
.	2d]	.	.
.	.	8b]	.
.	.	4bn	.
8GL	.	8b	.
8GJ	.	.	.
8GL	.	.	(16aaLL
.	.	.	16gg
8GJ	.	.	16ff#X
.	.	.	16ggJJ)
.	.	.	(16aaLL
.	.	.	16gg
.	.	.	16ff#
.	.	.	16ggJJ)
=62	=62	=62	=62
.	[2c	.	.
.	.	8a	.
.	.	4a 4ff#X	.
8GGL	.	[8a [8ff#	.
8GJ	.	.	.
8GL	.	.	(16ff#XLL
.	.	.	16ccc
8GJ	.	.	16bbn
.	.	.	16cccJJ)
.	.	.	(16dddLL
.	.	.	16ccc
.	.	.	16bb
.	.	.	16cccJJ)
=63	=63	=63	=63
.	4c]	.	.
.	.	8a] 8gg-X	.
.	4A	4a 4gg-	.
8GL	.	8a [8gg-	.
8GJ	.	.	.
8GL	.	.	(16dddLL
.	.	.	16ccc
8GJ	.	.	16bbn
.	.	.	16cccJJ)
.	.	.	(16dddLL
.	.	.	16ccc
.	.	.	16bb
.	.	.	16cccJJ)
=64	=64	=64	=64
.	4G	.	.
.	.	8bn 8gg-]	.
.	[4f	4b	.
8GGL	.	[8b	.
8GJ	.	.	.
8GL	.	.	8bbn'L
8GJ	.	.	8fff'J
.	.	.	8ddd'L
.	.	.	8bb'J
=65	=65	=65	=65
.	4f]	.	.
.	.	8b]	.
.	4d	4bn	.
8GL	.	8b	.
8GJ	.	.	.
8GL	.	.	8gg'L
8GJ	.	.	8ff'J
.	.	.	8ddd'L
.	.	.	8ff'J
=66	=66	=66	=66
.	4e	.	.
.	.	4cc	.
.	4r	.	.
.	.	8r	.
8CL	.	(8g	.
8GGJ	.	.	.
8EL	.	.	4ee
8GGJ	.	.	.
.	.	.	8r
.	.	.	(8gg
=67	=67	=67	=67
.	4r	.	.
.	.	4f#X)	.
.	8r	.	.
.	(8bn	8r	.
8DL	.	(8fn	.
8GGJ	.	.	.
8BBnL	.	.	4ff#X)
8GGJ	.	.	.
.	.	.	8r
.	.	.	(8ffn
=68	=68	=68	=68
.	4cc)	.	.
.	.	4e')	.
.	4r	.	.
.	.	8r	.
8CL	.	(8g	.
8GGJ	.	.	.
8EL	.	.	4ee)
8GGJ	.	.	.
.	.	.	8r
.	.	.	(8gg
=69	=69	=69	=69
.	4r	.	.
.	.	4f#X')	.
.	8r	.	.
.	8bn	8r	.
8DL	.	8fn	.
8GGJ	.	.	.
8BBnL	.	.	4ff#X)
8GGJ	.	.	.
.	.	.	8r
.	.	.	8ffn
=70	=70	=70	=70
.	4cc	.	.
.	.	8e'L	.
.	4r	(8cccJ	.
.	.	8bbn'L)	.
4C	.	(8aaJ	.
4r	.	.	8ee'L
.	.	.	(8eeeJ
.	.	.	8ddd'L)
.	.	.	(8cccJ
=71	=71	=71	=71
.	2r	.	.
.	.	8gg'L)	.
.	.	(8ffJ	.
.	.	8ee'L)	.
2r	.	(8ddJ	.
.	.	.	8bbn'L)
.	.	.	(8aaJ
.	.	.	8gg'L)
.	.	.	(8ffJ
=72	=72	=72	=72
.	8r	.	.
.	(8eL	8cc')	.
.	8d')	8r	.
.	(8cJ	8r	.
8r	.	(8dd	.
(8cL	.	.	.
8Bn')	.	.	8ee')
(8AJ	.	.	8r
.	.	.	8r
.	.	.	(8ff
=73	=73	=73	=73
.	8Bn'L)	.	.
.	(8A	8ee')	.
.	8G)	8r	.
.	8F'J	8r	.
8G'L)	.	(8dd	.
8F'	.	.	.
8E'	.	.	8gg')
(8DJ	.	.	8r
.	.	.	8r
.	.	.	(8bbn
=74	=74	=74	=74
.	8E'	.	.
.	8r	8ee')	.
.	8F'	8r	.
.	8r	8cc'	.
8C')	.	8r	.
8r	.	.	.
8F'	.	.	8ccc')
8r	.	.	8r
.	.	.	8aa'
.	.	.	8r
=75	=75	=75	=75
.	8A'	.	.
.	8r	8dd'	.
.	8f'	8r	.
.	8r	8a'	.
8F'	.	8r	.
8r	.	.	.
8F'	.	.	8ff'
8r	.	.	8r
.	.	.	8dd'
.	.	.	8r
=76	=76	=76	=76
.	4g	.	.
.	.	4e	.
.	4r	.	.
.	.	4r	.
4G	.	.	.
4r	.	.	(8ccL
.	.	.	8ggJ)
.	.	.	4r
=77	=77	=77	=77
.	4G	.	.
.	.	4f	.
.	4r	.	.
.	.	4r	.
4GG	.	.	.
4r	.	.	(8bnL
.	.	.	8ddJ)
.	.	.	4r
=78	=78	=78	=78
.	(2E-X	.	.
.	.	(2G	.
8CCL	.	.	.
8C	.	.	.
8C	.	.	(2c
8CJ	.	.	.
=79	=79	=79	=79
.	2F	.	.
.	.	2Bn	.
8CCL	.	.	.
8C	.	.	.
8C	.	.	2d
8CJ	.	.	.
=80	=80	=80	=80
.	2G	.	.
.	.	2c	.
8CCL	.	.	.
8C	.	.	.
8C	.	.	2e-X
8CJ	.	.	.
=81	=81	=81	=81
.	2A-X)	.	.
.	.	2d)	.
8CCL	.	.	.
8C	.	.	.
8C	.	.	2f)
8CJ	.	.	.
=82	=82	=82	=82
.	4G	.	.
.	.	4d-X	.
.	4G-X	.	.
.	.	4c	.
8CCL	.	.	.
8C	.	.	.
8C	.	.	(4e
8CJ	.	.	.
.	.	.	4e-X
=83	=83	=83	=83
.	2F	.	.
.	.	2Bn	.
8CCL	.	.	.
8C	.	.	.
8C	.	.	4d
8CJ	.	.	.
.	.	.	4g)
=84	=84	=84	=84
.	2E-X	.	.
.	.	2G	.
8CCL	.	.	.
8C	.	.	.
8C	.	.	(2c
8CJ	.	.	.
=85	=85	=85	=85
.	2F	.	.
.	.	2Bn	.
8CCL	.	.	.
8C	.	.	.
8C	.	.	2d
8CJ	.	.	.
=86	=86	=86	=86
.	2G	.	.
.	.	2c	.
8CCL	.	.	.
8C	.	.	.
8C	.	.	2e-X
8CJ	.	.	.
=87	=87	=87	=87
.	2A-X	.	.
.	.	2d	.
8CCL	.	.	.
8C	.	.	.
8C	.	.	2f)
8CJ	.	.	.
=88	=88	=88	=88
.	4G	.	.
.	.	4d-X	.
.	4G-X	.	.
.	.	4c	.
8CCL	.	.	.
8C	.	.	.
8C	.	.	(4e
8CJ	.	.	.
.	.	.	4e-X
=89	=89	=89	=89
.	2F	.	.
.	.	2Bn	.
8CCL	.	.	.
8C	.	.	.
8C	.	.	4d
8CJ	.	.	.
.	.	.	4g)
=90	=90	=90	=90
.	4E	.	.
.	.	8c	.
.	4r	(8AL	.
.	.	8G'J)	.
4CC	.	(8f	.
4r	.	.	8c'
.	.	.	(8fL
.	.	.	8e'J)
.	.	.	(8a
=91	=91	=91	=91
.	2r	.	.
.	.	8e')	.
.	.	(8eL	.
.	.	8d'J)	.
2r	.	(8f	.
.	.	.	8g')
.	.	.	(8ccL
.	.	.	8bn'J)
.	.	.	(8dd
=92	=92	=92	=92
.	4r	.	.
.	.	8e')	.
.	8r	(8ccL	.
.	8g'	8bn'J)	.
4r	.	(8dd	.
8r	.	.	8cc')
8Bn'	.	.	(8eeL
.	.	.	8dd'J)
.	.	.	(8ff
=93	=93	=93	=93
.	8g'L	.	.
.	8g'	8cc'L)	.
.	8g'	8dd'	.
.	8g'J	8cc'	.
8c'L	.	8dd'J	.
8Bn'	.	.	.
8c'	.	.	8ee'L)
8B'J	.	.	8ff'
.	.	.	8ee'
.	.	.	8ff'J
=94	=94	=94	=94
.	8g'L	.	.
.	8g'	8cc'L	.
.	8g'	8dd'	.
.	8g'J	8cc'	.
8c'L	.	8cc'J	.
8Bn'	.	.	.
8c'	.	.	8ee'L
8E'J	.	.	8ff'
.	.	.	8ee'
.	.	.	8gg'J
=95	=95	=95	=95
.	8cL	.	.
.	8c	8ccL	.
.	8c	8cc	.
.	8cJ	8cc	.
8FL	.	8ccJ	.
8F	.	.	.
8F	.	.	2aa
8FJ	.	.	.
=96	=96	=96	=96
.	8e-XL	.	.
.	8e-	8aL	.
.	8e-	8a	.
.	8e-J	8a	.
8F#XL	.	8aJ	.
8F#	.	.	.
8F#	.	.	2ccc
8F#J	.	.	.
=97	=97	=97	=97
.	8gL	.	.
.	8g	8eL	.
.	8g	8e	.
.	8gJ	8e	.
8GL	.	8eJ	.
8G	.	.	.
8G	.	.	2cc
8GJ	.	.	.
=98	=98	=98	=98
.	8BnL	.	.
.	8B	8fL	.
.	8B	8f	.
.	8BJ	8f	.
8GL	.	8fJ	.
8G	.	.	.
8G	.	.	2ddT
8GJ	.	.	.
=99	=99	=99	=99
.	8c'	.	.
.	(8cL	8e'	.
.	8eJ)	(8eL	.
.	8r	8gJ)	.
4C	.	8r	.
8r	.	.	4cc
8e	.	.	.
.	.	.	8r
.	.	.	(8gg
=100	=100	=100	=100
.	8r	.	.
.	(8GL	8r	.
.	8d'J)	(8dL	.
.	8r	8f'J)	.
4f	.	8r	.
8r	.	.	4bn)
8f	.	.	.
.	.	.	8r
.	.	.	(8bbn
=101	=101	=101	=101
.	8r	.	.
.	(8cL	8r	.
.	8e'J)	(8eL	.
.	8r	8g'J)	.
4e	.	8r	.
8r	.	.	4ccc)
8e	.	.	.
.	.	.	8r
.	.	.	(8gg
=102	=102	=102	=102
.	8r	.	.
.	(8GL	8r	.
.	8d'J)	(8dL	.
.	8d	8f'J)	.
4f	.	(8ff	.
8r	.	.	4bn)
8G	.	.	.
.	.	.	8r
.	.	.	(8bbn
=103	=103	=103	=103
.	4e'	.	.
.	.	4ee')	.
.	4c'	.	.
.	.	4gg'	.
4C'	.	.	.
4C'	.	.	4ccc')
.	.	.	4eee'
=104	=104	=104	=104
.	4c'	.	.
.	.	4ee'	.
.	8r	.	.
.	(8e	4r	.
4C'	.	.	.
4r	.	.	4ccc'
.	.	.	4r
=105	=105	=105	=105
.	8c)	.	.
.	8GL	4r	.
.	8A	.	.
.	8BnJ	(4ff	.
2r	.	.	.
.	.	.	2r
=106	=106	=106	=106
.	8cL	.	.
.	8dJ	4ee)	.
.	8eL	.	.
.	8cJ	4cc'	.
2r	.	.	.
.	.	.	2r
=107	=107	=107	=107
.	8fL	.	.
.	8eJ	4a	.
.	8dL	.	.
.	8gJ	(8.bntL	.
4r	.	.	.
.	.	32aLL	.
.	.	32bJJJ)	.
8r	.	.	2r
8G	.	.	.
=108	=108	=108	=108
.	8cL	.	.
.	8eJ	[2cc	.
.	8fL	.	.
.	8gJ	.	.
8E'L	.	.	.
8C'	.	.	.
8D'	.	.	4r
8E'J	.	.	.
.	.	.	(4bb-
=109	=109	=109	=109
.	8aL	.	.
.	8b-J	4cc]	.
.	8ccL	.	.
.	8aJ	4r	.
8F'L	.	.	.
8G'	.	.	.
8A'	.	.	4aa)
8F'J	.	.	.
.	.	.	4ff'
=110	=110	=110	=110
.	4f	.	.
.	.	4r	.
.	8b-L	.	.
.	8gJ	8r	.
8B-'L	.	(8cc	.
8A'	.	.	.
8G'	.	.	4dd
8C'J	.	.	.
.	.	.	8.eetL
.	.	.	32ddLL
.	.	.	32eeJJJ
=111	=111	=111	=111
.	4f	.	.
.	.	8aL)	.
.	4e-X	8f'J	.
.	.	8g'L	.
4D'	.	8a'J	.
4C'	.	.	[2ff
=112	=112	=112	=112
.	4d	.	.
.	.	8b-'L	.
.	4B-	8cc'J	.
.	.	8dd'L	.
4BB-'	.	[8ddJ	.
4r	.	.	2ff]
=113	=113	=113	=113
.	4G	.	.
.	.	8ddL]	.
.	(8.AtL	8b-'J	.
.	.	[4cc	.
.	32GLL	.	.
.	32AJJJ)	.	.
2r	.	.	.
.	.	.	4.ee-X
.	.	.	8ff
=114	=114	=114	=114
.	4B-	.	.
.	.	8ccL]	.
.	4d	8f'J	.
.	.	[4b-	.
2r	.	.	.
.	.	.	(4.dd
.	.	.	16ee-XLL
.	.	.	16ddJJ)
=115	=115	=115	=115
.	4e	.	.
.	.	8b-L]	.
.	(8.f#XtL	8g'J	.
.	.	4a	.
.	32eLL	.	.
.	32f#JJJ)	.	.
4r	.	.	.
8r	.	.	(4.cc
(8D	.	.	.
.	.	.	16ddLL
.	.	.	16ccJJ)
=116	=116	=116	=116
.	4g	.	.
.	.	8d	.
.	4r	(8ddL	.
.	.	8b-J)	.
8BB-'L)	.	8f#X	.
8FF#X'J	.	.	.
8GG'L	.	.	4b-
8AA'J	.	.	.
.	.	.	8r
.	.	.	(8ddd
=117	=117	=117	=117
.	8r	.	.
.	(8dL	8g'L	.
.	8B-)	8a'	.
.	8F#X'J	8b-'	.
4BB-	.	8dd'J	.
4r	.	.	8bb-'L)
.	.	.	8ff#X'
.	.	.	8gg'
.	.	.	8aa'J
=118	=118	=118	=118
.	4G	.	.
.	.	(4.cc#X	.
.	4B-	.	.
8r	.	8ee)	.
(8B-L	.	.	.
8G)	.	.	(4.bb-
8C#XJ	.	.	.
.	.	.	16aaLL
.	.	.	16ggJJ)
=119	=119	=119	=119
.	4.A	.	.
.	.	8dd'L	.
.	.	8cc#X'	.
.	8e'	8dd'	.
8D'L	.	8b-X'J	.
8E'	.	.	.
8F'	.	.	8ffn'L
8G'J	.	.	(8aa
.	.	.	8ff)
.	.	.	8dd-X'J
=120	=120	=120	=120
.	8f'	.	.
.	(8aL	8a'L	.
.	8f'J)	8cc#X'	.
.	8c#X'	8dd'	.
4F	.	8ee'J	.
4r	.	.	8dd'L
.	.	.	8ee'
.	.	.	8ff'
.	.	.	8gg'J
=121	=121	=121	=121
.	4d	.	.
.	.	(4ee	.
.	4r	.	.
.	.	4dd)	.
8r	.	.	.
(8DL	.	.	.
8BB-')	.	.	(4.ffT
8GG#X'J	.	.	.
.	.	.	16eeLL
.	.	.	16ffJJ)
=122	=122	=122	=122
.	8r	.	.
.	(8c#XL	8cc#XL	.
.	8d)	(8a	.
.	(8eJ	8bn)	.
[2AA	.	(8cc#J	.
.	.	.	8ee'L
.	.	.	(8aa
.	.	.	8gg#X)
.	.	.	(8ggnJ
=123	=123	=123	=123
.	8dL)	.	.
.	(8d	8dd)	.
.	8e)	4g#X	.
.	(8fJ	.	.
2AA]	.	(8g#	.
.	.	.	8ff#XL)
.	.	.	(8ffn
.	.	.	8ee)
.	.	.	(8ddJ
=124	=124	=124	=124
.	8eL)	.	.
.	(8c#X	8aL)	.
.	8d)	(8a	.
.	(8eJ	8bn)	.
[2AA	.	(8cc#XJ	.
.	.	.	8cc#XL)
.	.	.	(8aa
.	.	.	8gg#X)
.	.	.	(8ggnJ
=125	=125	=125	=125
.	8dL)	.	.
.	(8d	8dd)	.
.	8e)	4g#X	.
.	(8fJ	.	.
2AA]	.	(8g#	.
.	.	.	8ff#XL)
.	.	.	(8ffn
.	.	.	8ee)
.	.	.	(8ddJ
=126	=126	=126	=126
.	2e)	.	.
.	.	8aL)	.
.	.	(8bn	.
.	.	8cc#X)	.
2AA	.	(8ddJ	.
.	.	.	8cc#XL)
.	.	.	(8dd
.	.	.	8ee)
.	.	.	(8ffJ
=127	=127	=127	=127
.	2B-	.	.
.	.	8eeL)	.
.	.	(8ff	.
.	.	8gg)	.
2GG	.	(8eeJ	.
.	.	.	8ggL)
.	.	.	(8aa
.	.	.	8bb-)
.	.	.	(8ccc#XJ
=128	=128	=128	=128
.	8A'	.	.
.	8r	8dd')	.
.	8c'	8r	.
.	8r	8dd'	.
8FF'	.	.	.
8r	.	.	.
8G'	.	.	8ddd')
.	.	.	8r
.	.	.	8bb-'
=129	=129	=129	=129
.	8d'	8f'	.
.	8r	8r	.
.	8g'	8e'	.
8A'	8r	8r	.
8r	.	.	.
8A'	.	.	8aa'
8r	.	.	8r
.	.	.	8cc#X'
=130	=130	=130	=130
.	(2F	(2A	.
8DDL	.	.	.
8D	.	.	(2d
8D	.	.	.
8DJ	.	.	.
=131	=131	=131	=131
.	2G	2c#X	.
8DDL	.	.	.
8D	.	.	2e
8D	.	.	.
8DJ	.	.	.
=132	=132	=132	=132
.	2A	2d	.
8DDL	.	.	.
8D	.	.	2f
8D	.	.	.
8DJ	.	.	.
=133	=133	=133	=133
.	2B-)	2e)	.
8DDL	.	.	.
8D	.	.	2g)
8D	.	.	.
8DJ	.	.	.
=134	=134	=134	=134
.	4A	(4e-X	.
.	4A-X	4d	.
8DDL	.	.	.
8D	.	.	(4f#X
8D	.	.	.
8DJ	.	.	4fn
=135	=135	=135	=135
.	2G	2d-X)	.
8DDL	.	.	.
8D	.	.	4e
8D	.	.	.
8DJ	.	.	4a)
=136	=136	=136	=136
.	(2F	(2A	.
8DDL	.	.	.
8D	.	.	(2d
8D	.	.	.
8DJ	.	.	.
=137	=137	=137	=137
.	2G	2c#X	.
8DDL	.	.	.
8D	.	.	2e
8D	.	.	.
8DJ	.	.	.
=138	=138	=138	=138
.	2A)	2cn)	.
8DDL	.	.	.
8D	.	.	2f#X
8D	.	.	.
8DJ	.	.	.
=139	=139	=139	=139
.	[2G	[2B-X	.
8DD-XL	.	.	.
8D-X	.	.	4g
8D-	.	.	.
8D-J	.	.	4fn)
=140	=140	=140	=140
.	2G]	2B-]	.
8CCL	.	.	.
8C	.	.	(2e
8C	.	.	.
8CJ	.	.	.
=141	=141	=141	=141
.	(4A-X	(4Bn	.
.	4F)	4A-X)	.
8CCL	.	.	.
8CJ	.	.	4f)
8CL	.	.	.
8CJ	.	.	(4Bn
=142	=142	=142	=142
.	4E	4G	.
.	4r	4r	.
4CC	.	.	.
.	.	.	8c'L)
4r	.	.	(8gJ
.	.	.	8e'L)
.	.	.	(8b-J
=143	=143	=143	=143
.	4G	4G 4e	.
.	4r	4r	.
4CC	.	.	.
.	.	.	8g'L)
4r	.	.	(8eeJ
.	.	.	8cc'L)
.	.	.	(8ggJ
=144	=144	=144	=144
.	4G	4G 4e	.
.	4r	4r	.
4CC	.	.	.
.	.	.	8ee'L)
4r	.	.	(8bb-J
.	.	.	8gg'L)
.	.	.	(8bb-J
=145	=145	=145	=145
.	2r	2r	.
2r	.	.	.
.	.	.	8gg'L)
.	.	.	(8bb-J
.	.	.	8gg'L)
.	.	.	(8aaJ
=146	=146	=146	=146
.	8f	8a	.
.	8r	8r	.
.	8f	8b-	.
2r	8r	8r	.
.	.	.	8ff'L)
.	.	.	8cc'J
.	.	.	8dd'L
.	.	.	8ee'J
=147	=147	=147	=147
.	4f	4a	.
.	8r	8r	.
2r	(8f	(8a	.
.	.	.	8ff'L
.	.	.	8gg'J
.	.	.	8aa'L
.	.	.	8ff'J
=148	=148	=148	=148
.	8e'L)	8g'L)	.
.	8c'J	8e'J	.
.	8d'L	8f'L	.
2r	8e'J	8g'J	.
.	.	.	8ccc'L
.	.	.	8ccc'J
.	.	.	8ccc'L
.	.	.	8ccc'J
=149	=149	=149	=149
.	4f'	4a'	.
.	4r	4r	.
2r	.	.	.
.	.	.	(16aaLL
.	.	.	16bb-
.	.	.	16aa
.	.	.	16ggJJ)
.	.	.	8ff'L
.	.	.	(8aaJ
=150	=150	=150	=150
.	8f'	8a'	.
.	8r	8r	.
.	8f'	8b-'	.
2r	8r	8r	.
.	.	.	8ffL)
.	.	.	8cc'J
.	.	.	8dd'L
.	.	.	8ee'J
=151	=151	=151	=151
.	4f	4a	.
.	8r	8r	.
2r	8f	8a 8cc	.
.	.	.	8ff'L
.	.	.	8gg'J
.	.	.	8aa'L
.	.	.	8ff'J
=152	=152	=152	=152
.	8e'	8g' 8cc	.
.	8r	8r	.
.	8G'	8f' 8dd	.
2r	8r	8r	.
.	.	.	8gg'L
.	.	.	8ccc'J
.	.	.	(16bbnLL
.	.	.	16ccc
.	.	.	16ddd
.	.	.	16bbJJ)
=153	=153	=153	=153
.	8c'L	8e'L 8cc	.
.	8c'J	8e'J 8cc	.
.	8c'L	8e'L 8cc	.
4r	(8D^J	(8a^J	.
.	.	.	8ccc'L
8r	.	.	8ccc'J
(8F#X^	.	.	8ccc'L
.	.	.	(8cc^J
=154	=154	=154	=154
.	8dL)	8gL)	.
.	8A'J	8d'J	.
.	8B-'L	8d'L	.
8GL)	8G-X'J	8d'J	.
8c'J	.	.	8b-X'L)
8B-'L	.	.	8f#X'J
8A'J	.	.	8g'L
.	.	.	8a'J
=155	=155	=155	=155
.	8G'L	8d'L	.
.	8G'J	8d'J	.
.	8G'L	8d'L	.
8G'L	(8C^J	(8g^J	.
8G'J	.	.	8b-'L
8G'L	.	.	8b-'J
(8E^J	.	.	8b-'L
.	.	.	(8b-^J
=156	=156	=156	=156
.	8cL)	8fL)	.
.	8G'J	8c'J	.
.	8A'L	8c'L	.
8FL)	8E'J	8c'J	.
8B-'J	.	.	8a'L)
8A'L	.	.	8e'J
8G'J	.	.	8f'L
.	.	.	8g'J
=157	=157	=157	=157
.	8F'L	8c'L	.
.	8F'J	8c'J	.
.	8F'L	8c'L	.
8F'L	(8fJ	(8fJ	.
8F'J	.	.	8a'L
8F'L	.	.	8a'J
(8FJ	.	.	8a'L
.	.	.	(8fJ
=158	=158	=158	=158
.	8A'L)	8A'L)	.
.	(8fJ	(8fJ	.
.	8B-'L)	8B-'L)	.
8AA'L)	(8fJ	(8fJ	.
(8FJ	.	.	8A'L)
8BB-'L)	.	.	(8fJ
(8FJ	.	.	8B-'L)
.	.	.	(8fJ
=159	=159	=159	=159
.	8c'L)	8c'L)	.
.	(8f	(8fJ	.
.	8d'J)	8d'L)	.
8C'L)	8r	8f'J	.
(8F	.	.	8c'L)
8D'J)	.	.	(8fJ
8r	.	.	8d'L)
.	.	.	8ff'J
=160	=160	=160	=160
.	2r	8A'L	.
.	.	8f'J	.
.	.	8B-'L	.
2r	.	8f'J	.
.	.	.	8a'L
.	.	.	8ff'J
.	.	.	8b-'L
.	.	.	8ff'J
=161	=161	=161	=161
.	2r	8c'L	.
.	.	8f'J	.
.	.	8d'L	.
2r	.	8f'J	.
.	.	.	8cc'L
.	.	.	8ff'J
.	.	.	8dd'L
.	.	.	(8ffJ
=162	=162	=162	=162
.	(2d	4.f	.
(2G	.	(8bn	.
.	.	.	8bnL)
.	.	.	(8aaJ
.	.	.	8ggL)
.	.	.	(8ffJ
=163	=163	=163	=163
.	4e)	4cc)	.
.	4r	8r	.
4c)	.	(8e	.
.	.	.	8eeL)
4r	.	.	(8ddJ
.	.	.	8ccL)
.	.	.	(8ggJ
=164	=164	=164	=164
.	(2d	4.f)	.
(2G	.	(8bn	.
.	.	.	8bnL)
.	.	.	(8aaJ
.	.	.	8ggL)
.	.	.	(8ffJ
=165	=165	=165	=165
.	8e)	8ccL)	.
.	(8eL	8gJ	.
.	8cJ)	4e	.
4c)	8r	.	.
.	.	.	4ee)
8r	.	.	.
(8E	.	.	8r
.	.	.	(8cc
=166	=166	=166	=166
.	8r	8r	.
.	(8eL	(8gL	.
.	8cJ)	8e'J)	.
4c')	.	.	.
.	.	.	4ee')
8r	.	.	.
(8c	.	.	8r
.	.	.	(8ee
=167	=167	=167	=167
.	8r	8r	.
.	(8eL	(8gL	.
.	8cJ)	8e'J)	.
4e')	.	.	.
.	.	.	4gg')
8r	.	.	.
(8e	.	.	8r
.	.	.	(8gg
=168	=168	=168	=168
.	8r'	8r	.
.	(8eL	(8gL	.
.	8cJ)	8e'J)	.
4g)	.	.	.
.	.	.	4bb-')
8r	.	.	.
(8g	.	.	8r
.	.	.	(8bb-
=169	=169	=169	=169
.	8r	8r	.
.	(8eL	(8gL	.
.	8cJ)	8e'J)	.
4e')	.	.	.
.	.	.	4gg')
8r	.	.	.
(8g	.	.	8r
.	.	.	(8bb-
=170	=170	=170	=170
.	2r	2r	.
4e')	.	.	.
.	.	.	8gg'L)
4r	.	.	(8ddd
.	.	.	8bb-')
.	.	.	(8cccJ
=171	=171	=171	=171
.	2r	2r	.
2r	.	.	.
.	.	.	8aa'L)
.	.	.	(8bb-
.	.	.	8gg')
.	.	.	(8aaJ
=172	=172	=172	=172
.	8f'	8a'	.
.	8r	8r	.
.	8f'	8b-'	.
.	8r	8r	.
2r	.	.	.
.	.	.	8ff'L)
.	.	.	8cc'
.	.	.	8dd'
.	.	.	8ee'J
=173	=173	=173	=173
.	4f	4a	.
.	8r	8r	.
.	(8f	(8a	.
2r	.	.	.
.	.	.	8ff'L
.	.	.	8gg'
.	.	.	8aa'
.	.	.	8ff'J
=174	=174	=174	=174
.	8e')	8g'L)	.
.	8c'L	8e'	.
.	8d'	8f'	.
.	8e'J	8g'J	.
2r	.	.	.
.	.	.	8ccc'L
.	.	.	8ccc'
.	.	.	8ccc'
.	.	.	8ccc'J
=175	=175	=175	=175
.	4f'	4a'	.
.	8r	8r	.
.	(8cc	(8gg	.
4r	.	.	.
.	.	.	(16aaLL
.	.	.	16bb-
8r	.	.	16aa
.	.	.	16ggJJ
(8e-X	.	.	8ff'L)
.	.	.	8aa'J
=176	=176	=176	=176
.	8b-'L)	8ff'L)	.
.	8a'	8ff'	.
.	8b-'	8ff'	.
.	8g'J	8b-'J	.
8d'L)	.	.	.
8c'	.	.	8bb-'L
8B-'	.	.	8ccc'
8G'J	.	.	8ddd'
.	.	.	8eee'J
=177	=177	=177	=177
.	4f	8cc'L	.
.	.	8b-'	.
.	4r	8a'	.
.	.	8cc'J	.
8A'L	.	.	.
8G'	.	.	8fff'L
8F'	.	.	8ggg'
8A'J	.	.	8aaa'
.	.	.	8fff'J
=178	=178	=178	=178
.	8b-'	8dd'	.
.	8r	8r	.
.	8g'	8b-'	.
.	8r	8r	.
8B-'	.	.	.
8r	.	.	8ggg'L
8c'	.	.	8bbb-'J
8r	.	.	(16eeeLL
.	.	.	16fff
.	.	.	16ggg
.	.	.	16eeeJJ)
=179	=179	=179	=179
.	8a'L	8a'L	.
.	8cc'	8a'	.
.	8a'J	8a'	.
.	8r	8bn'J	.
8FL	.	.	.
8F	.	.	8fff'L
8F	.	.	8fff'
8FJ	.	.	8fff'
.	.	.	8ddd'J
=180	=180	=180	=180
.	2r	8cc'L	.
.	.	8ee-X'J	.
.	.	(16aLL	.
.	.	16b-	.
.	.	16cc	.
.	.	16aJJ)	.
8FFL	.	.	.
8F	.	.	8eee-X'L
8F	.	.	8ggg'J
8FJ	.	.	(16cccLL
.	.	.	16ddd
.	.	.	16eee-
.	.	.	16cccJJ)
=181	=181	=181	=181
.	2r	8b-'L	.
.	.	8b-'	.
.	.	8b-'	.
.	.	8dd'J	.
8FFL	.	.	.
8F	.	.	8ddd'L
8F	.	.	8ddd'
8FJ	.	.	8ddd'
.	.	.	8bb-'J
=182	=182	=182	=182
.	2r	8ee-X'L	.
.	.	8gg'J	.
.	.	(16ccLL	.
.	.	16dd	.
.	.	16ee-	.
.	.	16ccJJ)	.
8FFL	.	.	.
8F	.	.	8ccc'L
8F	.	.	8eee-X'J
8FJ	.	.	(16aaLL
.	.	.	16bb-
.	.	.	16ccc
.	.	.	16aaJJ)
=183	=183	=183	=183
.	2r	8ddL	.
.	.	8ddJ	.
.	.	8ddL	.
.	.	(16b-L	.
.	.	16ccJJ)	.
8BB-L	.	.	.
8B-	.	.	8bb-L
8B-	.	.	8bb-J
8B-J	.	.	8bb-L
.	.	.	(16dddL
.	.	.	16cccJJ)
=184	=184	=184	=184
.	2r	8ddL	.
.	.	8cc	.
.	.	8b-	.
.	.	8aJ	.
8B-L	.	.	.
8B-	.	.	8bb-L
8B-	.	.	8aa
8BnJ	.	.	8gg
.	.	.	8ffJ
=185	=185	=185	=185
.	8cL	4g	.
.	(16ccL	.	.
.	16b-JJ)	.	.
.	8aL	[4ccc	.
.	8gJ	.	.
4c	.	.	.
.	.	.	4ee
4r	.	.	.
.	.	.	4r
=186	=186	=186	=186
.	8g-XL	8ccc]	.
.	8d	4ccc	.
.	8e	.	.
.	8g-J	8ccc	.
2r	.	.	.
.	.	.	8ddd
.	.	.	4ddd
.	.	.	[8ddd
=187	=187	=187	=187
.	8gL	8bb-	.
.	8a	4bb-	.
.	8b-	.	.
.	(8gJ	[8bb-	.
2r	.	.	.
.	.	.	8ddd]
.	.	.	4ddd
.	.	.	8ddd
=188	=188	=188	=188
.	8eL)	8bb-]	.
.	8c	4bb-	.
.	8d	.	.
.	8eJ	8bb-	.
2r	.	.	.
.	.	.	8ccc
.	.	.	4ccc
.	.	.	[8ccc
=189	=189	=189	=189
.	8f'L	8aa	.
.	8g'J	4aa	.
.	8a'L	.	.
.	8f'J	[8aa	.
2r	.	.	.
.	.	.	8ccc]
.	.	.	4ccc
.	.	.	8ccc
=190	=190	=190	=190
.	8d'L	4aa]	.
.	8f'J	.	.
.	8e'L	4gg	.
.	8g'J	.	.
2r	.	.	.
.	.	.	8bb-
.	.	.	4bb-
.	.	.	8bb-'
=191	=191	=191	=191
.	8f'	8ff'	.
.	8r	8r	.
.	8cc'	8ff'	.
.	8r	8r	.
4r	.	.	.
.	.	.	4aa'
8AA'	.	.	.
8r	.	.	4fff'
=192	=192	=192	=192
.	8dd'	8ff'	.
.	8r	8r	.
.	8dd'	8gg'	.
.	8r	8r	.
8BB-'	.	.	.
8r	.	.	4ddd'
8B-'	.	.	.
8r	.	.	4bb-'
=193	=193	=193	=193
.	4cc	4ff	.
.	4r	4r	.
4c	.	.	.
.	.	.	(8aaL
4r	.	.	8cccJ)
.	.	.	4r
=194	=194	=194	=194
.	4c	4b-	.
.	4r	4r	.
4c	.	.	.
.	.	.	(8eeL
4r	.	.	8ggJ)
.	.	.	4r
=195	=195	=195	=195
.	(2A-X	(2c	.
8FFL	.	.	.
8FFJ	.	.	(2f
8FFL	.	.	.
8FFJ	.	.	.
=196	=196	=196	=196
.	2B-	2e	.
8FFL	.	.	.
8FFJ	.	.	2g
8FFL	.	.	.
8FFJ	.	.	.
=197	=197	=197	=197
.	2c	2f	.
8FFL	.	.	.
8FFJ	.	.	2a-X
8FFL	.	.	.
8FFJ	.	.	.
=198	=198	=198	=198
.	2d-X)	2g)	.
8FFL	.	.	.
8FFJ	.	.	2b-)
8FFL	.	.	.
8FFJ	.	.	.
=199	=199	=199	=199
.	(4c	(4f#X	.
.	4Bn	4fn	.
8FFL	.	.	.
8FFJ	.	.	(4a
8FFL	.	.	.
8FFJ	.	.	4a-X
=200	=200	=200	=200
.	2B-X)	2e)	.
8FFL	.	.	.
8FFJ	.	.	4g
8FFL	.	.	.
8FFJ	.	.	4cc)
=201	=201	=201	=201
.	(2A-X	(2c	.
8FFL	.	.	.
8FFJ	.	.	(2f
8FFL	.	.	.
8FFJ	.	.	.
=202	=202	=202	=202
.	2B-	2e	.
8FFL	.	.	.
8FFJ	.	.	2g
8FFL	.	.	.
8FFJ	.	.	.
=203	=203	=203	=203
.	2c	2f	.
8FFL	.	.	.
8FFJ	.	.	2a-X
8FFL	.	.	.
8FFJ	.	.	.
=204	=204	=204	=204
.	2d-X)	2g)	.
8FFL	.	.	.
8FFJ	.	.	2b-)
8FFL	.	.	.
8FFJ	.	.	.
=205	=205	=205	=205
.	(4c	4f#X	.
.	4Bn	4fn	.
8FFL	.	.	.
8FFJ	.	.	(4a
8FFL	.	.	.
8FFJ	.	.	4a-X
=206	=206	=206	=206
.	2B-X)	2e)	.
8FFL	.	.	.
8FFJ	.	.	4g
8FFL	.	.	.
8FFJ	.	.	4cc)
=207	=207	=207	=207
.	4A	8f'L	.
.	.	(8gJ	.
.	4r	8f'L)	.
.	.	(8b-J	.
4FF	.	.	.
.	.	.	8f'L
4r	.	.	(8b-J
.	.	.	8a'L)
.	.	.	(8ddJ
=208	=208	=208	=208
.	4r	8a'L)	.
.	.	(8aJ	.
.	8r	8g'L)	.
.	(8c	(8b-J	.
2r	.	.	.
.	.	.	8cc'L)
.	.	.	(8ffJ
.	.	.	8ee'L)
.	.	.	(8ggJ
=209	=209	=209	=209
.	8f'L)	8a'L)	.
.	8f'J	(8ccJ	.
.	8f'L	8bn'L)	.
.	8f'J	(8ddJ	.
2r	.	.	.
.	.	.	8ff'L)
.	.	.	(8ee-XJ
.	.	.	8dd'L)
.	.	.	(8ffJ
=210	=210	=210	=210
.	8f'L	8cc'L)	.
.	8f'J	(8ee-XJ	.
.	8f'L	8dd'L)	.
.	8f'J	(8ccJ	.
2r	.	.	.
.	.	.	8ee-X'L)
.	.	.	(8ggJ
.	.	.	8ff'L)
.	.	.	(8ee-J
=211	=211	=211	=211
.	8b-'L	8b-X'L)	.
.	(8aJ	(8ccJ	.
.	8b-'L)	8dd'L)	.
.	(8ccJ	(8ee-XJ	.
4r	.	.	.
.	.	.	8dd'L)
8r	.	.	(8ff#XJ
(8F#X	.	.	8gg'L)
.	.	.	(8aaJ
=212	=212	=212	=212
.	8a'L)	8dd'L)	.
.	(8f#XJ	(8ccJ	.
.	8d'L)	8dd'L)	.
.	(8gnJ	(8ddJ	.
8G'L)	.	.	.
(8AJ	.	.	8bb-'L)
8B-'L)	.	.	(8aaJ
(8BnJ	.	.	8gg'L)
.	.	.	(8ffJ
=213	=213	=213	=213
.	4g)	4cc)	.
.	4cc	8r	.
.	.	8cc'	.
[2c)	.	.	.
.	.	.	8eeL)
.	.	.	8cc'J
.	.	.	8dd'L
.	.	.	8ee'J
=214	=214	=214	=214
.	2bn	8dd'L	.
.	.	8ee'J	.
.	.	8ff'L	.
.	.	8dd'J	.
2c_	.	.	.
.	.	.	8ff'L
.	.	.	8gg'J
.	.	.	8aa'L
.	.	.	8ff'J
=215	=215	=215	=215
.	8b-X'L	8cc'L	.
.	8a'J	8dd'J	.
.	8g'L	8ee'L	.
.	8f'J	8ff'J	.
2c_	.	.	.
.	.	.	8ee'L
.	.	.	8ff'J
.	.	.	8gg'L
.	.	.	8aa'J
=216	=216	=216	=216
.	2e	8gg'L	.
.	.	8aa'J	.
.	.	8bb-'L	.
.	.	8gg'J	.
2c_	.	.	.
.	.	.	8bb-'L
.	.	.	8ccc'J
.	.	.	8ddd'L
.	.	.	8bb-'J
=217	=217	=217	=217
.	[2f	8ff'L	.
.	.	8gg'J	.
.	.	8aa'L	.
.	.	8ff'J	.
2c_	.	.	.
.	.	.	8aa'L
.	.	.	8bb-'J
.	.	.	8ccc'L
.	.	.	8aa'J
=218	=218	=218	=218
.	2f]	2dd	.
2c]	.	.	.
.	.	.	8bbn'L
.	.	.	8ddd'J
.	.	.	8fff'L
.	.	.	8bb'J
=219	=219	=219	=219
.	8e'L	8cc'L	.
.	8e'J	8g'J	.
.	8e'L	8g'L	.
.	8e'J	8g'J	.
8c'L	.	.	.
8c'J	.	.	(16dddLL
.	.	.	16ccc
8c'L	.	.	16bbn
.	.	.	16cccJJ)
8c'J	.	.	(16dddLL
.	.	.	16ccc
.	.	.	16bb
.	.	.	16cccJJ)
=220	=220	=220	=220
.	8eL	8gL	.
.	8eJ	8gJ	.
.	8eL	8gL	.
.	8eJ	8gJ	.
8cL	.	.	.
8cJ	.	.	(16dddLL
.	.	.	16ccc
8cL	.	.	16bbn
.	.	.	16cccJJ)
8cJ	.	.	(16dddLL
.	.	.	16ccc
.	.	.	16bb
.	.	.	16cccJJ)
=221	=221	=221	=221
.	8fL	8ccL	.
.	8fJ	8ccJ	.
.	8fL	8ccL	.
.	8fJ	8ccJ	.
8B-XL	.	.	.
8B-J	.	.	(16fffLL
.	.	.	16eee
8B-L	.	.	16ddd
.	.	.	16eeeJJ)
8B-J	.	.	(16fffLL
.	.	.	16eee
.	.	.	16ddd
.	.	.	16eeeJJ)
=222	=222	=222	=222
.	8fL	8ccL	.
.	8fJ	8ccJ	.
.	8fL	8ccL	.
.	8fJ	8ccJ	.
8B-L	.	.	.
8B-J	.	.	(16fffLL
.	.	.	16eee
8B-L	.	.	16ddd
.	.	.	16eeeJJ)
8B-J	.	.	(16fffLL
.	.	.	16eee
.	.	.	16ddd
.	.	.	16eeeJJ)
=223	=223	=223	=223
.	4e	8cc'L	.
.	.	(8ffJ	.
.	4r	8ee'L)	.
.	.	(8ddJ	.
4A	.	.	.
.	.	.	8fff'L
4r	.	.	(8aaaJ
.	.	.	8ggg'L)
.	.	.	(8fffJ
=224	=224	=224	=224
.	2r	8cc'L)	.
.	.	(8b-J	.
.	.	8a'L)	.
.	.	(8gJ	.
2r	.	.	.
.	.	.	8eee'L)
.	.	.	(8dddJ
.	.	.	8ccc'L)
.	.	.	(8bb-J
=225	=225	=225	=225
.	8r	4f')	.
.	(8a	.	.
.	8g'L)	8r	.
.	(8fJ	(8g	.
8r	.	.	.
(8f	.	.	4aa')
8e'L)	.	.	.
(8dJ	.	.	8r
.	.	.	(8bb-
=226	=226	=226	=226
.	8e'L)	4a)	.
.	(8dJ	.	.
.	8c'L)	8r	.
.	8B-J	8b-'	.
8c'L)	.	.	.
(8B-J	.	.	4ccc)
8A'L)	.	.	.
8GJ	.	.	8r
.	.	.	8ddd'
=227	=227	=227	=227
.	8AL	2cc	.
.	8AJ	.	.
.	8AL	.	.
.	8AJ	.	.
8FL	.	.	.
8FJ	.	.	2eee-X
8FL	.	.	.
8FJ	.	.	.
=228	=228	=228	=228
.	[2A	[2c	.
(2FF	.	.	.
.	.	.	(2e-X
=229	=229	=229	=229
.	4A]	4c]	.
.	[4cc	[4aa	.
4GG-X)	.	.	.
.	.	.	4d)
[4g-X	.	.	.
.	.	.	[4ddd
=230	=230	=230	=230
.	4cc]	4aa]	.
.	[4D	(4A	.
4g-]	.	.	.
.	.	.	4ddd]
(4FF#X	.	.	.
.	.	.	(4c
=231	=231	=231	=231
.	4D]	4B-)	.
.	[4dd	[4bb-	.
4GG)	.	.	.
.	.	.	4B-)
[4g	.	.	.
.	.	.	[4ddd
=232	=232	=232	=232
.	4dd]	4bb-]	.
.	[4G	[4B-	.
4g]	.	.	.
.	.	.	4ddd]
(4FF	.	.	.
.	.	.	(4d
=233	=233	=233	=233
.	4G]	4B-]	.
.	[4b-	[4gg	.
4EE)	.	.	.
.	.	.	4c)
[4e	.	.	.
.	.	.	[4ccc
=234	=234	=234	=234
.	4b-]	4gg]	.
.	[4C	(4G	.
4e]	.	.	.
.	.	.	4ccc]
(4EE	.	.	.
.	.	.	(4B-
=235	=235	=235	=235
.	8CL]	4A)	.
.	8c'J	.	.
.	8A'L	4a	.
.	8c'J	.	.
8FFL)	.	.	.
8CC'J	.	.	4A)
8FF'L	.	.	.
8CC'J	.	.	8.cccL
.	.	.	16fJk
=236	=236	=236	=236
.	8B-'L	2e	.
.	8c'	.	.
.	8B-'	.	.
.	8c'J	.	.
8GG'L	.	.	.
8CC'J	.	.	4e
8GG'L	.	.	.
8CC'J	.	.	8ccc
.	.	.	16r
.	.	.	16e
=237	=237	=237	=237
.	8AL	2f	.
.	8c	.	.
.	8A	.	.
.	8cJ	.	.
8FFL	.	.	.
8CCJ	.	.	4f
8FFL	.	.	.
8CCJ	.	.	8ccc
.	.	.	16r
.	.	.	16f
=238	=238	=238	=238
.	8B-L	2e	.
.	8c	.	.
.	8B-	.	.
.	8cJ	.	.
8GGL	.	.	.
8CCJ	.	.	4e
8GGL	.	.	.
8CCJ	.	.	8ccc
.	.	.	16r
.	.	.	16e
=239	=239	=239	=239
.	8AL	2f	.
.	8c	.	.
.	8A	.	.
.	8cJ	.	.
8AAL	.	.	.
8CCJ	.	.	4f
8AAL	.	.	.
8CCJ	.	.	8aa
.	.	.	16r
.	.	.	16e
=240	=240	=240	=240
.	2d	4.Bn	.
.	.	8f	.
8BBnL	.	.	.
8CCJ	.	.	4f
8BBL	.	.	.
8CCJ	.	.	8a
.	.	.	16r
.	.	.	16Bn
=241	=241	=241	=241
.	4e	4e	.
.	(4E	4r	.
[2C	.	.	.
.	.	.	8cL
.	.	.	(8cc
.	.	.	8bn')
.	.	.	(8b-XJ
=242	=242	=242	=242
.	4F)	2r	.
.	(4Bn	.	.
2C]	.	.	.
.	.	.	8a'L)
.	.	.	(8a-X
.	.	.	8g')
.	.	.	(8fJ
=243	=243	=243	=243
.	4c)	2r	.
.	(4E	.	.
[2C	.	.	.
.	.	.	8e'L)
.	.	.	(8cc
.	.	.	8bn')
.	.	.	(8b-XJ
=244	=244	=244	=244
.	4F)	2r	.
.	(4Bn	.	.
2C]	.	.	.
.	.	.	8a'L)
.	.	.	(8a-X
.	.	.	8g')
.	.	.	8f'J
=245	=245	=245	=245
.	4c)	2c	.
.	(4e	.	.
[2C	.	.	.
.	.	.	12e'L
.	.	.	12g'
.	.	.	12bn'J
.	.	.	12cc'L
.	.	.	12g'
.	.	.	12e'J
=246	=246	=246	=246
.	2f)	2Bn	.
2C]	.	.	.
.	.	.	12dL
.	.	.	12f
.	.	.	12bnJ
.	.	.	12ddL
.	.	.	12b
.	.	.	12fJ
=247	=247	=247	=247
.	[2g	[2B-	.
[2C	.	.	.
.	.	.	12eL
.	.	.	12g
.	.	.	12b-J
.	.	.	12ccL
.	.	.	12ee
.	.	.	12ggJ
=248	=248	=248	=248
.	2g]	4B-]	.
.	.	4e	.
2C]	.	.	.
.	.	.	12bb-L
.	.	.	12gg
.	.	.	12eeJ
.	.	.	12ccL
.	.	.	12dd
.	.	.	12b-J
=249	=249	=249	=249
.	4a	4f	.
.	4r	4r	.
4F	.	.	.
.	.	.	12aL
.	.	.	12ccc
4r	.	.	.
.	.	.	12aaJ
.	.	.	12ffL
.	.	.	12cc
.	.	.	12aJ
=250	=250	=250	=250
.	4r	4r	.
.	(8.b-L	4ee	.
.	16gJk)	.	.
4r	.	.	.
.	.	.	12b-L
.	.	.	12bb-
4C	.	.	.
.	.	.	12ggJ
.	.	.	12eeL
.	.	.	12gg
.	.	.	12b-J
=251	=251	=251	=251
.	4a	4ff	.
.	4r	4r	.
4F	.	.	.
.	.	.	12aL
.	.	.	12ccc
4r	.	.	.
.	.	.	12aaJ
.	.	.	12ffL
.	.	.	12cc
.	.	.	12aJ
=252	=252	=252	=252
.	4r	4r	.
.	(8.b-L	4ee	.
.	16gJk)	.	.
4r	.	.	.
.	.	.	12b-L
.	.	.	12bb-
4C	.	.	.
.	.	.	12ggJ
.	.	.	12eeL
.	.	.	12gg
.	.	.	12b-J
=253	=253	=253	=253
.	4a	4ff	.
.	4r	4r	.
4F	.	.	.
.	.	.	12aL
.	.	.	12aa
4r	.	.	.
.	.	.	12ggJ
.	.	.	12ffL
.	.	.	12ccc
.	.	.	12bb-J
=254	=254	=254	=254
.	4r	4r	.
.	4A	4f	.
2r	.	.	.
.	.	.	12aaL
.	.	.	12eee-X
.	.	.	12dddJ
.	.	.	12cccL
.	.	.	12ggg
.	.	.	12eee-J
=255	=255	=255	=255
.	8B-L	8fL	.
.	8B-J	8fJ	.
.	8B-L	8fL	.
.	8B-J	8fJ	.
2r	.	.	.
.	.	.	4ccc#X
.	.	.	[4ddd
=256	=256	=256	=256
.	8B-L	8fL	.
.	8B-J	8fJ	.
.	8B-L	8fL	.
.	8B-J	8fJ	.
2r	.	.	.
.	.	.	12dddL]
.	.	.	12ddd
.	.	.	12eeenJ
.	.	.	12fffL
.	.	.	12ddd
.	.	.	12bb-J
=257	=257	=257	=257
.	8cL	8fL	.
.	8cJ	8fJ	.
.	8cL	8fL	.
.	8cJ	8fJ	.
2r	.	.	.
.	.	.	12aaL
.	.	.	12ccc
.	.	.	12eeenJ
.	.	.	12fffL
.	.	.	12ccc
.	.	.	12aaJ
=258	=258	=258	=258
.	8cL	8eL	.
.	8cJ	8eJ	.
.	8cL	8eL	.
.	8cJ	8eJ	.
2r	.	.	.
.	.	.	2ggT
=259	=259	=259	=259
.	4d	4f	.
.	4r	4r	.
2r	.	.	.
.	.	.	12ffL
.	.	.	12aa
.	.	.	12cccJ
.	.	.	12fffL
.	.	.	12ccc
.	.	.	12aaJ
=260	=260	=260	=260
.	4r	4r	.
.	4b-	4ee	.
4r	.	.	.
.	.	.	12cccL
.	.	.	12bb-
4C	.	.	.
.	.	.	12ggJ
.	.	.	12cccL
.	.	.	12bb-
.	.	.	12ggJ
=261	=261	=261	=261
.	4a	4ff	.
.	4r	4r	.
4F	.	.	.
.	.	.	12ffL
.	.	.	12aa
4r	.	.	.
.	.	.	12cccJ
.	.	.	12fffL
.	.	.	12ccc
.	.	.	12aaJ
=262	=262	=262	=262
.	4r	4r	.
.	4b-	4ee	.
4r	.	.	.
.	.	.	12cccL
.	.	.	12bb-
4c	.	.	.
.	.	.	12ggJ
.	.	.	12cccL
.	.	.	12bb-
.	.	.	12ggJ
=263	=263	=263	=263
.	4a'	4ff'	.
.	4dd'	4dd'	.
4f'	.	.	.
.	.	.	12ffL
.	.	.	12aa
4d'	.	.	.
.	.	.	12ffJ
.	.	.	12ddL
.	.	.	12ff
.	.	.	12ddJ
=264	=264	=264	=264
.	4b-'	4b-'	.
.	4g'	4g'	.
4B-'	.	.	.
.	.	.	12b-L
.	.	.	12dd
4G'	.	.	.
.	.	.	12b-J
.	.	.	12gL
.	.	.	12b-
.	.	.	12gJ
=265	=265	=265	=265
.	4G	4B-	.
.	4r	4r	.
4C	.	.	.
.	.	.	12eL
.	.	.	12g
4r	.	.	.
.	.	.	12eJ
.	.	.	12B-L
.	.	.	12B-
.	.	.	12B-J
=266	=266	=266	=266
.	4G	4B-	.
.	4r	4r	.
4C	.	.	.
.	.	.	12eL
.	.	.	12g
4r	.	.	.
.	.	.	12eJ
.	.	.	12B-L
.	.	.	12B-
.	.	.	12B-J
=267	=267	=267	=267
.	[2e	[2g [2b-	.
[2C	.	.	.
.	.	.	(12GL
.	.	.	12e
.	.	.	12ccJ)
.	.	.	(12ccL
.	.	.	12e
.	.	.	12GJ)
=268	=268	=268	=268
.	2e]	2g] 2b-]	.
2C]	.	.	.
.	.	.	(12GL
.	.	.	12e
.	.	.	12ccJ)
.	.	.	(12ccL
.	.	.	12e
.	.	.	12GJ)
=269	=269	=269	=269
.	12eL	12gL 12b-	.
.	12e	12g 12b-	.
.	12eJ	12gJ 12b-	.
.	12eL	12gL 12b-	.
.	12e	12g 12b-	.
.	12eJ	12gJ 12b-	.
12CL	.	.	.
12C	.	.	.
.	.	.	2G 2e 2cc 2bb-
12CJ	.	.	.
12CL	.	.	.
12C	.	.	.
12CJ	.	.	.
=270	=270	=270	=270
.	12eL	12gL 12b-	.
.	12e	12g 12b-	.
.	12eJ	12gJ 12b-	.
.	12eL	12gL 12b-	.
.	12e	12g 12b-	.
.	12eJ	12gJ 12b-	.
12CL	.	.	.
12C	.	.	.
.	.	.	2G 2e 2cc 2bb-
12CJ	.	.	.
12CL	.	.	.
12C	.	.	.
12CJ	.	.	.
=271	=271	=271	=271
.	4e;	4g; 4b-	.
.	8r	8r	.
.	8r	8r	.
4C;	.	.	.
.	.	.	4G; 4e 4cc 4bb-
8r	.	.	.
8r	.	.	8r
.	.	.	(8aa
=272	=272	=272	=272
.	8f	8a	.
.	8r	8r	.
.	8f	8b-	.
.	8r	8r	.
2r	.	.	.
.	.	.	8ff'L)
.	.	.	8cc'J
.	.	.	8dd'L
.	.	.	8ee'J
=273	=273	=273	=273
.	4f	4a	.
.	8r	8r	.
.	(8f	(8a	.
2r	.	.	.
.	.	.	8ff'L
.	.	.	8gg'J
.	.	.	8aa'L
.	.	.	8ff'J
=274	=274	=274	=274
.	8e'L)	8g'L)	.
.	8c'J	8e'J	.
.	8d'L	8f'L	.
.	8e'J	8g'J	.
2r	.	.	.
.	.	.	8ccc'L
.	.	.	8ccc'J
.	.	.	8ccc'L
.	.	.	8ccc'J
=275	=275	=275	=275
.	4f	4a	.
.	8r	8r	.
.	(8cc	(8ff	.
4r	.	.	.
.	.	.	(16aaLL
.	.	.	16bb-
8r	.	.	16aa
.	.	.	16ggJJ)
(8e-X	.	.	8ffL
.	.	.	8aa'J
=276	=276	=276	=276
.	8b-'L)	8ff'L)	.
.	8a'J	8ff'J	.
.	8b-'L	8ff'L	.
.	8g'J	8b-'J	.
8d'L)	.	.	.
8c'J	.	.	8bb-'L
8B-'L	.	.	8ccc'J
8G'J	.	.	8ddd'L
.	.	.	8eee'J
=277	=277	=277	=277
.	4f	8cc'L	.
.	.	8b-'J	.
.	4r	8a'L	.
.	.	8cc'J	.
8A'L	.	.	.
8G'J	.	.	8fff'L
8F'L	.	.	8ggg'J
8A'J	.	.	8aaa'L
.	.	.	8fff'J
=278	=278	=278	=278
.	8b-'	8dd'	.
.	8r	8r	.
.	8g'	8b-'	.
.	8r	8r	.
8B-'	.	.	.
8r	.	.	8ggg'L
8c'	.	.	8bbb-'J
8r	.	.	16eeeLL
.	.	.	16fff
.	.	.	16ggg
.	.	.	16eeeJJ
=279	=279	=279	=279
.	4a	4a	.
.	4r	8r	.
.	.	8f'	.
4F	.	.	.
.	.	.	4fff
4r	.	.	.
.	.	.	8r
.	.	.	8a'
=280	=280	=280	=280
.	2r	8g'L	.
.	.	8b-'J	.
.	.	(16eLL	.
.	.	16f	.
.	.	16g	.
.	.	16eJJ)	.
2r	.	.	.
.	.	.	8b-'L
.	.	.	8dd'J
.	.	.	(16gLL
.	.	.	16a
.	.	.	16b-
.	.	.	16gJJ)
=281	=281	=281	=281
.	4r	4f	.
.	8r	4r	.
.	8f'	.	.
4r	.	.	.
.	.	.	4a
8r	.	.	.
8A'	.	.	4r
=282	=282	=282	=282
.	8g'L	2r	.
.	8b-'J	.	.
.	(16aLL	.	.
.	16g	.	.
.	16f	.	.
.	16eJJ)	.	.
8B-'L	.	.	.
8d'J	.	.	2r
(16cLL	.	.	.
16B-	.	.	.
16A	.	.	.
16GJJ)	.	.	.
=283	=283	=283	=283
.	4f	8r	.
.	.	4a	.
.	4r	.	.
.	.	8g'	.
8F'L	.	.	.
8C'J	.	.	8r
8D'L	.	.	4cc
8E'J	.	.	.
.	.	.	8b-'
=284	=284	=284	=284
.	8r	8f'	.
.	8c'	4aa	.
.	8d'L	.	.
.	8e'J	8gg'	.
4F	.	.	.
.	.	.	8a'
4r	.	.	4ccc
.	.	.	8bb-'
=285	=285	=285	=285
.	4f	8ff'	.
.	.	4a	.
.	8r	.	.
.	8c'	8g'	.
8r	.	.	.
8C'L	.	.	8aa'
8D'	.	.	4cc
8E'J	.	.	.
.	.	.	8b-'
=286	=286	=286	=286
.	4c	8f'	.
.	.	4a	.
.	8r	.	.
.	8c'	8g'	.
8F'L	.	.	.
8CC'	.	.	8a'
8DD'	.	.	4cc
8EE'J	.	.	.
.	.	.	8b-'
=287	=287	=287	=287
.	4f'	4f'	.
.	4cc'	4g' 4b-	.
4FF'	.	.	.
.	.	.	4a'
4c'	.	.	.
.	.	.	4b-' 4ee
=288	=288	=288	=288
.	4f'	4f' 4a	.
.	4C'	4g' 4b- 4ee	.
4F'	.	.	.
.	.	.	4a' 4ff
4C'	.	.	.
.	.	.	4e' 4cc 4gg
=289	=289	=289	=289
.	4F'	4f' 4a 4ff	.
.	4r	4r	.
4FF'	.	.	.
.	.	.	4f' 4cc 4aa
4r	.	.	.
.	.	.	4r
==	==	==	==
*-	*-	*-	*-
!!!system-decoration: [(s1,s2,s3,s4)]
